archdroid-icon-theme/Archdroid-Indigo/apps/scalable/system-file-manager-opensuse-color.svg

<?xml version="1.0" encoding="UTF-8" standalone="no"?>
<svg
   xmlns:dc="http://purl.org/dc/elements/1.1/"
   xmlns:cc="http://creativecommons.org/ns#"
   xmlns:rdf="http://www.w3.org/1999/02/22-rdf-syntax-ns#"
   xmlns:svg="http://www.w3.org/2000/svg"
   xmlns="http://www.w3.org/2000/svg"
   xmlns:sodipodi="http://sodipodi.sourceforge.net/DTD/sodipodi-0.dtd"
   xmlns:inkscape="http://www.inkscape.org/namespaces/inkscape"
   fill="#3F51B5"
   width="48"
   height="48"
   viewBox="0 0 48 48"
   id="svg2"
   version="1.1"
   inkscape:version="0.91 r13725"
   sodipodi:docname="system-file-manager-opensuse.svg">
  <metadata
     id="metadata10">
    <rdf:RDF>
      <cc:Work
         rdf:about="">
        <dc:format>image/svg+xml</dc:format>
        <dc:type
           rdf:resource="http://purl.org/dc/dcmitype/StillImage" />
      </cc:Work>
    </rdf:RDF>
  </metadata>
  <defs
     id="defs8" />
  <sodipodi:namedview
     pagecolor="#ffffff"
     bordercolor="#666666"
     borderopacity="1"
     objecttolerance="10"
     gridtolerance="10"
     guidetolerance="10"
     inkscape:pageopacity="0"
     inkscape:pageshadow="2"
     inkscape:window-width="1366"
     inkscape:window-height="713"
     id="namedview6"
     showgrid="false"
     inkscape:snap-bbox="true"
     inkscape:snap-bbox-edge-midpoints="false"
     inkscape:snap-bbox-midpoints="true"
     inkscape:snap-object-midpoints="true"
     inkscape:zoom="6.179518388275627"
     inkscape:cx="33.781877156842"
     inkscape:cy="27.63655923100754"
     inkscape:window-x="0"
     inkscape:window-y="30"
     inkscape:window-maximized="1"
     inkscape:current-layer="svg2"
     inkscape:bbox-nodes="true"
     inkscape:bbox-paths="true" />
  <path
     style="fill:#73ba25;fill-opacity:1"
     d="M 20 5 L 16 9 L 16 13 L 8 13 C 5.79 13 4.019531250000001 14.79 4.01953125 17 L 4 39 C 4 41.21 5.789999999999999 43 8 43 L 40 43 C 42.21 43 44 41.21 44 39 L 44 17 C 44 14.79 42.21 13 40 13 L 32 13 L 32 9 L 28 5 L 20 5 z M 20 9 L 28 9 L 28 13 L 20 13 L 20 9 z M 24 18 C 29.52227475686951 18 34 22.47716051596553 34 28 C 34 33.52295903118985 29.52227475686954 38 24 38 C 18.47760569526052 38 14 33.52295903118985 14 28 C 14 22.47716051596551 18.47748614739057 18 24 18 z M 24.048828125 19.384765625 C 20.74500319090074 19.384765625 18.85706034776472 20.7373729718078 17.625 22.26171875 C 18.56906952904112 22.52065788854319 19.22689701221856 22.7363468976392 19.439453125 22.806640625 C 19.4420831781391 22.66390132148174 19.46484375 21.376953125 19.46484375 21.376953125 L 19.484375 21.337890625 L 19.53125 21.322265625 C 19.82127313251283 21.3645853180029 26.01794041108402 22.28014143362443 28.626953125 23.80078125 C 28.94961282601078 23.99026349127004 29.10675658643388 24.19010561430801 29.306640625 24.39453125 C 30.02739473296366 25.13990776376586 30.98503909775732 28.24363423072156 31.0859375 28.884765625 L 31.046875 28.951171875 C 31.0095760645738 28.96491979786817 30.91765870773608 29.0283220286555 30.798828125 29.109375 C 30.19009037118494 29.53496287313655 28.76789896626584 30.53124656768911 26.943359375 30.369140625 C 25.30232576411634 30.22293445397586 23.16071763465572 29.28075595737099 20.578125 27.580078125 C 20.69181502432799 27.84822239450709 21.2286984725331 29.12378166972256 21.318359375 29.337890625 L 21.35546875 29.380859375 C 21.72965358296179 29.57392803093132 25.31746891848778 31.4044862124771 27.09765625 31.3671875 C 28.53438255112912 31.33849618270989 30.06776231277683 30.63761694140095 30.681640625 30.26953125 L 30.876953125 30.232421875 C 30.9315865015698 30.27510020946905 30.9231062496638 30.3566053819382 30.90625 30.43359375 C 30.86859242096392 30.60956716271265 30.7831878312784 30.93211911715919 30.724609375 31.08203125 L 30.677734375 31.20703125 C 30.60791841894578 31.39256843514266 30.53874939899177 31.572692795939 30.408203125 31.6796875 C 30.04621217477374 32.0091594602147 29.46871321334586 32.26935816346429 28.564453125 32.666015625 C 27.16562349864688 33.27737977758996 24.89744909362168 33.6625844348483 22.791015625 33.650390625 C 22.03714675705855 33.63365402324744 21.30679220796324 33.549486264779 20.666015625 33.4765625 C 19.32887269954407 33.32413987689631 18.24460896312023 33.20130641224791 17.595703125 33.705078125 C 19.17397410415683 35.4888412303569 21.47950530390937 36.615234375 24.048828125 36.615234375 C 28.80671380137199 36.615234375 32.666015625 32.75833542540856 32.666015625 28 C 32.66601562500001 23.24238185752371 28.80719199285178 19.384765625 24.048828125 19.384765625 z M 26.32421875 23.9453125 C 25.66467315145369 23.95523491389617 25.04507439193095 24.20185126241796 24.560546875 24.65625 C 24.04147002365179 25.13694911176462 23.7417823798208 25.79240038733279 23.716796875 26.5 C 23.66945591849752 27.95847529558032 24.81826199718916 29.1896271221488 26.27734375 29.244140625 C 26.9878167411475 29.2670936788321 27.65837806883114 29.01601371504741 28.17578125 28.53125 C 28.69174985672936 28.0489967752155 28.9896831122196 27.39597681326886 29.015625 26.689453125 C 29.06559600964151 25.22894552777826 27.91850396020999 23.9977937012098 26.45703125 23.9453125 C 26.41267899024642 23.94375838698 26.3680928182738 23.94459521706775 26.32421875 23.9453125 z M 26.25390625 24.7265625 C 26.31463656793755 24.72285653818299 26.3739797219728 24.724291104048 26.435546875 24.7265625 C 27.45445337063353 24.76230709945726 28.2547742679374 25.61554694878299 28.220703125 26.63671875 C 28.2052814497757 27.12805755859307 27.99532200078677 27.58770189459826 27.634765625 27.92578125 C 27.27325286625358 28.26123056798347 26.80364147948707 28.4351043637327 26.30859375 28.419921875 C 25.28992635010636 28.38214497390137 24.4935117028025 27.52340439104176 24.52734375 26.50390625 C 24.54288497309423 26.01041559261021 24.7548767358724 25.55515569522648 25.11328125 25.21875 C 25.42781169585379 24.92394671484416 25.8281962850873 24.7525042327165 26.25390625 24.7265625 z M 26.740234375 25.650390625 C 26.28607201703781 25.650390625 25.91796875 25.896405805434 25.91796875 26.19921875 C 25.91796875 26.50011894007995 26.28607201703781 26.748046875 26.740234375 26.748046875 C 27.19296215852274 26.748046875 27.55859375 26.50059712870145 27.55859375 26.19921875 C 27.55859375000001 25.896405805434 27.19296215852272 25.650390625 26.740234375 25.650390625 z "
     id="path4143" />
</svg>

<svg xmlns="http://www.w3.org/2000/svg" fill="#3F51B5" viewBox="0 0 48 48"><path d="m20 5l-4 4v4h-8c-2.21 0-3.98 1.79-3.98 4l-.02 22c0 2.21 1.79 4 4 4h32c2.21 0 4-1.79 4-4v-22c0-2.21-1.79-4-4-4h-8v-4l-4-4h-8m0 4h8v4h-8v-4m4 9c5.522 0 10 4.477 10 10 0 5.523-4.478 10-10 10-5.522 0-10-4.477-10-10 0-5.523 4.477-10 10-10m.049 1.385c-3.304 0-5.192 1.353-6.424 2.877.944.259 1.602.475 1.814.545.003-.143.025-1.43.025-1.43l.02-.039.047-.016c.29.042 6.487.958 9.1 2.479.323.189.48.389.68.594.721.745 1.678 3.849 1.779 4.49l-.039.066c-.037.014-.129.077-.248.158-.609.426-2.031 1.422-3.855 1.26-1.641-.146-3.783-1.088-6.365-2.789.114.268.651 1.544.74 1.758l.037.043c.374.193 3.962 2.024 5.742 1.986 1.437-.029 2.97-.73 3.584-1.098l.195-.037c.055.043.046.124.029.201-.038.176-.123.499-.182.648l-.047.125c-.07.186-.139.366-.27.473-.362.329-.939.59-1.844.986-1.399.611-3.667.997-5.773.984-.754-.017-1.484-.101-2.125-.174-1.337-.152-2.421-.275-3.07.229 1.578 1.784 3.884 2.91 6.453 2.91 4.758 0 8.617-3.857 8.617-8.615 0-4.758-3.859-8.615-8.617-8.615m2.275 4.561c-.66.01-1.279.257-1.764.711-.519.481-.819 1.136-.844 1.844-.047 1.458 1.101 2.69 2.561 2.744.71.023 1.381-.228 1.898-.713.516-.482.814-1.135.84-1.842.05-1.461-1.097-2.692-2.559-2.744-.044-.002-.089-.001-.133 0m-.07.781c.061-.004.12-.002.182 0 1.019.036 1.819.889 1.785 1.91-.015.491-.225.951-.586 1.289-.362.335-.831.509-1.326.494-1.019-.038-1.815-.897-1.781-1.916.016-.493.228-.949.586-1.285.315-.295.715-.466 1.141-.492m.486.924c-.454 0-.822.246-.822.549 0 .301.368.549.822.549.453 0 .818-.247.818-.549 0-.303-.366-.549-.818-.549" fill="#73ba25"/></svg>
